pieces/companion/bb.svg

<svg viewBox="0 0 64 64" xmlns="http://www.w3.org/2000/svg"><g transform="translate(0 -16)"><path d="m25.487 24.483c1.2367-2.1063 4.7206-1.6612 5.4991.6098.86725 1.566-.68557 2.8181-1.4023 4.0429.86334.74804 1.7253 1.498 2.5921 2.2466.8628-.86353 1.7255-1.7289 2.5791-2.6047-1.2344-2.0411-1.0582-5.2311 1.7944-5.629 3.3937-.62093 4.4112 3.6427 2.7746 5.9255 3.042 3.825 5.8144 8.0724 6.7563 12.947 1.0639 5.5837-.35292 11.343-2.7639 16.393.07956 2.5038-.1187 5.0045-.51697 7.4768 4.2681-1.6795 9.5183-2.4813 13.577.13848 2.6417 1.7789 2.5061 5.2613 2.1981 8.0579-6.165-3.306-13.412-2.869-20.092-1.766-3.321-3.589-9.672-3.523-13.012.013-6.688-1.181-13.888-1.456-20.112 1.697-.1954-2.831-.3481-6.362 2.3973-8.091 4.0697-2.497 9.2537-1.736 13.477-.017-.434-2.506-.621-5.046-.535-7.587-2.468-4.365-4.631-9.441-3.474-14.547 1.355-5.53 4.967-10.116 8.48-14.457-.428-1.551-1.319-3.365-.216-4.849z" fill="#fff" stroke="#000" stroke-miterlimit="10" stroke-width=".089633"/><path d="m25.487 24.483c1.2367-2.1063 4.7206-1.6612 5.4991.6098.86725 1.566-.68557 2.8181-1.4023 4.0429.86334.74804 1.7253 1.498 2.5921 2.2466.8628-.86353 1.7255-1.7289 2.5791-2.6047-1.2344-2.0411-1.0582-5.2311 1.7944-5.629 3.3937-.62093 4.4112 3.6427 2.7746 5.9255 3.042 3.825 5.8144 8.0724 6.7563 12.947 1.0639 5.5837-.35292 11.343-2.7639 16.393.07956 2.5038-.1187 5.0045-.51697 7.4768 4.2681-1.6795 9.5183-2.4813 13.577.13848 2.6417 1.7789 2.5061 5.2613 2.1981 8.0579-6.165-3.306-13.412-2.869-20.092-1.766-3.321-3.589-9.672-3.523-13.012.013-6.688-1.181-13.888-1.456-20.112 1.697-.1954-2.831-.3481-6.362 2.3973-8.091 4.0698-2.4979 9.2538-1.7365 13.477-.01729-.43376-2.5059-.62114-5.0459-.53493-7.587-2.468-4.3654-4.6309-9.4411-3.4734-14.547 1.3544-5.5309 4.966-10.116 8.4799-14.457-.42876-1.551-1.3192-3.3658-.21612-4.8491z"/><g fill="#fff"><path d="m32.234 33.193c2.9282-1.5981 5.4117 1.4174 6.7809 3.6532 2.7934 4.5069 5.2038 10.428 2.9606 15.615-2.747-1.974-2.722-5.748-3.854-8.663-.922-4.074-4.532-6.754-5.888-10.605z" stroke="#fff" stroke-miterlimit="10" stroke-width=".089633"/><path d="m32.234 33.193c2.9282-1.5981 5.4117 1.4174 6.7809 3.6532 2.7934 4.5069 5.2038 10.428 2.9606 15.615-2.747-1.974-2.722-5.748-3.854-8.663-.922-4.074-4.532-6.754-5.888-10.605z"/><path d="m22.226 56.17c.16947-2.6819 3.2536-2.9726 5.2984-3.3901 3.9761-.46606 8.1554-.60147 12.002.67789.92437.43111 3.3546 1.544 1.6487 2.7324-6.3006-.94867-12.645-.91333-18.949-.02028z" stroke="#fff" stroke-miterlimit="10" stroke-width=".089633"/><path d="m22.226 56.17c.16947-2.6819 3.2536-2.9726 5.2984-3.3901 3.9761-.46606 8.1554-.60147 12.002.67789.92437.43111 3.3546 1.544 1.6487 2.7324-6.3006-.94867-12.645-.91333-18.949-.02028z"/><path d="m29.159 57.599c2.0173-.47683 4.1414-.60691 6.0246.44535-1.874.9327-4.6318 1.6278-6.0246-.44535z" stroke="#fff" stroke-miterlimit="10" stroke-width=".089633"/><path d="m29.159 57.599c2.0173-.47683 4.1414-.60691 6.0246.44535-1.874.9327-4.6318 1.6278-6.0246-.44535z"/><path d="m23.062 65.119c-.27242-3.0548 3.1646-3.4455 5.3954-4.0282 4.0798-.60768 8.9055-.65532 12.218 2.1614.0053.5192.01591 1.5576.0212 2.0768-5.8077-1.4857-11.775-.96572-17.634-.21006z" stroke="#fff" stroke-miterlimit="10" stroke-width=".089633"/><path d="m23.062 65.119c-.27242-3.0548 3.1646-3.4455 5.3954-4.0282 4.0798-.60768 8.9055-.65532 12.218 2.1614.0053.5192.01591 1.5576.0212 2.0768-5.8077-1.4857-11.775-.96572-17.634-.21006z"/></g></g><path d="m5.4839219 55.552542c.00978-3.45009 1.3430733-5.42349 4.3760757-6.476992 2.2087684-.767206 6.4942944-.657126 9.2316584.237128l2.088266.682205-.146062-3.695745-.146063-3.695748-1.316593-2.711865c-1.775224-3.656534-2.433134-6.152866-2.428593-9.214888.0063-4.242733 1.710187-8.089192 6.285119-14.188351 1.309037-1.745168 2.326627-3.356083 2.261312-3.579811-.694928-2.380399-.732108-2.9387782-.261689-3.9301122 1.175299-2.4767595 4.502449-2.2066241 5.507741.4471803.27449.7246079.0523 1.3848559-1.063457 3.1601539-.373531.59433-.331239.680628.826668 1.686823.671187.583246 1.347473 1.064089 1.502858 1.06854.155388.0045.811534-.530932 1.458105-1.18974 1.119319-1.140503 1.16096-1.239784.870023-2.074365-.449006-1.288014-.367084-3.0098459.175045-3.6791136 1.131317-1.3966346 2.871973-1.5733783 4.160125-.4224135.685814.6127738.878302 1.0285468.983618 2.1245821.08744.910048-.0048 1.625359-.277728 2.153386-.402318.778384-.383821.824388 1.19014 2.960163 1.865622 2.531542 4.076005 6.68448 4.69098 8.81356 1.438861 4.981417.915658 10.904577-1.455395 16.476472-.661809 1.555227-.824263 2.322842-.828648 3.915444-.003 1.089529-.119431 2.769619-.258736 3.733526-.139306.963911-.227236 1.778612-.195398 1.810449.03184.03184.774728-.184114 1.650863-.479897 6.580909-2.2217 12.800022-.575734 13.967021 3.696548.354937 1.299387.397817 4.474576.06043 4.474576-.131395 0-1.031308-.298261-1.999807-.662804-3.421361-1.287796-5.827455-1.598842-10.909437-1.410305-2.538012.09416-5.102704.266937-5.699314.383954-.979835.192182-1.223376.116065-2.518124-.787021-.78836-.549879-2.052775-1.148372-2.809814-1.329982-2.767076-.663811-6.886955.196848-8.3385 1.741947-.553801.589494-.623599.595832-2.941936.267137-5.543504-.785963-11.836229-.331037-15.7385831 1.137806-.9633337.362598-1.7980036.659268-1.8548218.659268-.056818 0-.1006259-.945762-.09735-2.101695zm35.2482811-7.234554c0-1.428082-.560149-1.979686-2.93776-2.892941-3.181556-1.222059-9.817487-.909793-13.001841.611824-1.187075.567235-1.958704 1.626831-1.958704 2.689684 0 .555772.08424.579601 1.421774.402172 5.091596-.675425 12.226899-.630031 15.120599.09619.522034.131013 1.040678.250699 1.152543.265966.111864.01527.203389-.512537.203389-1.172897zm-6.580333-5.667433c1.221215-.443154 1.202744-.797383-.06373-1.222322-1.093687-.366961-4.569504-.312312-4.958835.07797-.106539.106799.148691.488882.567177.849074.603415.51936 1.052406.650628 2.169492.634265.774732-.01134 1.803389-.163889 2.2859-.338983zm-2.368819-2.75903c3.057627 0 6.535593.06102 7.728813.135594 2.11184.131989 2.171873.118785 2.259081-.496941.197286-1.392917-2.032865-2.508507-6.09546-3.049139-3.876836-.515911-9.818437.09837-12.034171 1.244173-.745623.385576-1.620975 1.627477-1.620975 2.299748 0 .206834.632913.231308 2.101695.08126 1.155932-.118083 4.60339-.214699 7.661017-.214699zm10.803707-4.630923c.250405-.733898.324494-1.947391.238815-3.911449-.138058-3.164788-.825337-5.488451-2.566715-8.677967-2.295918-4.205213-4.153589-5.969025-6.279208-5.961949-1.792483.006-2.059245.240103-1.572529 1.380202.216187.506402 1.426834 2.466675 2.690327 4.356164 2.07053 3.096366 2.383686 3.738733 3.172911 6.508474.481606 1.690173 1.074517 3.655259 1.317581 4.366859.494116 1.446592 1.853104 3.259878 2.326907 3.104775.169885-.05561.472245-.57991.671911-1.165109z" fill="#333" stroke="#000" stroke-width=".987802"/></svg>

<svg width="64" height="64" viewBox="0 0 64 64" fill="none" xmlns="http://www.w3.org/2000/svg">
<path d="M25.487 8.483C26.7237 6.3767 30.2076 6.8218 30.9861 9.0928C31.8534 10.6588 30.3005 11.9109 29.5838 13.1357C30.4471 13.8837 31.3091 14.6337 32.1759 15.3823C33.0387 14.5188 33.9014 13.6534 34.755 12.7776C33.5206 10.7365 33.6968 7.5465 36.5494 7.1486C39.9431 6.52767 40.9606 10.7913 39.324 13.0741C42.366 16.8991 45.1384 21.1465 46.0803 26.0211C47.1442 31.6048 45.7274 37.3641 43.3164 42.4141C43.396 44.9179 43.1977 47.4186 42.7994 49.8909C47.0675 48.2114 52.3177 47.4096 56.3764 50.0294C59.0181 51.8083 58.8825 55.2907 58.5745 58.0873C52.4095 54.7813 45.1625 55.2183 38.4825 56.3213C35.1615 52.7323 28.8105 52.7983 25.4705 56.3343C18.7825 55.1533 11.5825 54.8783 5.35853 58.0313C5.16313 55.2003 5.01043 51.6693 7.75583 49.9403C11.8255 47.4433 17.0095 48.2043 21.2328 49.9233C20.7988 47.4173 20.6118 44.8773 20.6978 42.3363C18.2298 37.9713 16.0668 32.8953 17.2238 27.7893C18.5788 22.2593 22.1908 17.6733 25.7038 13.3323C25.2758 11.7813 24.3848 9.96728 25.4878 8.48328L25.487 8.483Z" fill="white" stroke="black" stroke-width="0.089633" stroke-miterlimit="10"/>
<path d="M25.487 8.483C26.7237 6.3767 30.2076 6.8218 30.9861 9.0928C31.8534 10.6588 30.3005 11.9109 29.5838 13.1357C30.4471 13.8837 31.3091 14.6337 32.1759 15.3823C33.0387 14.5188 33.9014 13.6534 34.755 12.7776C33.5206 10.7365 33.6968 7.5465 36.5494 7.1486C39.9431 6.52767 40.9606 10.7913 39.324 13.0741C42.366 16.8991 45.1384 21.1465 46.0803 26.0211C47.1442 31.6048 45.7274 37.3641 43.3164 42.4141C43.396 44.9179 43.1977 47.4186 42.7994 49.8909C47.0675 48.2114 52.3177 47.4096 56.3764 50.0294C59.0181 51.8083 58.8825 55.2907 58.5745 58.0873C52.4095 54.7813 45.1625 55.2183 38.4825 56.3213C35.1615 52.7323 28.8105 52.7983 25.4705 56.3343C18.7825 55.1533 11.5825 54.8783 5.35853 58.0313C5.16313 55.2003 5.01043 51.6693 7.75583 49.9403C11.8256 47.4424 17.0096 48.2038 21.2328 49.923C20.7991 47.4171 20.6117 44.8771 20.6979 42.336C18.2299 37.9706 16.067 32.8949 17.2245 27.789C18.5789 22.2581 22.1905 17.673 25.7044 13.332C25.2756 11.781 24.3852 9.96619 25.4883 8.48289L25.487 8.483Z" fill="black"/>
<path d="M32.234 17.193C35.1622 15.5949 37.6457 18.6104 39.0149 20.8462C41.8083 25.3531 44.2187 31.2742 41.9755 36.4612C39.2285 34.4872 39.2535 30.7132 38.1215 27.7982C37.1995 23.7242 33.5895 21.0442 32.2335 17.1932L32.234 17.193Z" fill="white" stroke="white" stroke-width="0.089633" stroke-miterlimit="10"/>
<path d="M32.234 17.193C35.1622 15.5949 37.6457 18.6104 39.0149 20.8462C41.8083 25.3531 44.2187 31.2742 41.9755 36.4612C39.2285 34.4872 39.2535 30.7132 38.1215 27.7982C37.1995 23.7242 33.5895 21.0442 32.2335 17.1932L32.234 17.193Z" fill="white"/>
<path d="M22.226 40.17C22.3955 37.4881 25.4796 37.1974 27.5244 36.7799C31.5005 36.3138 35.6798 36.1784 39.5264 37.4578C40.4508 37.8889 42.881 39.0018 41.1751 40.1902C34.8745 39.2415 28.5301 39.2769 22.2261 40.1699L22.226 40.17Z" fill="white" stroke="white" stroke-width="0.089633" stroke-miterlimit="10"/>
<path d="M22.226 40.17C22.3955 37.4881 25.4796 37.1974 27.5244 36.7799C31.5005 36.3138 35.6798 36.1784 39.5264 37.4578C40.4508 37.8889 42.881 39.0018 41.1751 40.1902C34.8745 39.2415 28.5301 39.2769 22.2261 40.1699L22.226 40.17Z" fill="white"/>
<path d="M29.159 41.599C31.1763 41.1222 33.3004 40.9921 35.1836 42.0443C33.3096 42.977 30.5518 43.6721 29.159 41.599Z" fill="white" stroke="white" stroke-width="0.089633" stroke-miterlimit="10"/>
<path d="M29.159 41.599C31.1763 41.1222 33.3004 40.9921 35.1836 42.0443C33.3096 42.977 30.5518 43.6721 29.159 41.599Z" fill="white"/>
<path d="M23.062 49.119C22.7896 46.0642 26.2266 45.6735 28.4574 45.0908C32.5372 44.4831 37.3629 44.4355 40.6754 47.2522C40.6807 47.7714 40.6913 48.8098 40.6966 49.329C34.8889 47.8433 28.9216 48.3633 23.0626 49.1189L23.062 49.119Z" fill="white" stroke="white" stroke-width="0.089633" stroke-miterlimit="10"/>
<path d="M23.062 49.119C22.7896 46.0642 26.2266 45.6735 28.4574 45.0908C32.5372 44.4831 37.3629 44.4355 40.6754 47.2522C40.6807 47.7714 40.6913 48.8098 40.6966 49.329C34.8889 47.8433 28.9216 48.3633 23.0626 49.1189L23.062 49.119Z" fill="white"/>
<path d="M5.48391 55.5525C5.49369 52.1024 6.82698 50.129 9.85998 49.0755C12.0688 48.3083 16.3543 48.4184 19.0916 49.3127L21.1799 49.9949L21.0338 46.2991L20.8878 42.6034L19.5712 39.8915C17.796 36.235 17.1381 33.7387 17.1426 30.6766C17.1489 26.4339 18.8528 22.5874 23.4277 16.4883C24.7368 14.7431 25.7543 13.1322 25.689 12.9085C24.9941 10.5281 24.9569 9.96969 25.4273 8.97836C26.6026 6.5016 29.9298 6.77174 30.9351 9.42554C31.2096 10.1501 30.9874 10.8104 29.8716 12.5857C29.4981 13.18 29.5404 13.2663 30.6983 14.2725C31.3695 14.8558 32.0458 15.3366 32.2011 15.3411C32.3565 15.3456 33.0127 14.8101 33.6593 14.1513C34.7786 13.0108 34.8202 12.9115 34.5293 12.077C34.0803 10.7889 34.1622 9.06711 34.7043 8.39784C35.8356 7.0012 37.5763 6.82446 38.8644 7.97543C39.5503 8.5882 39.7427 9.00397 39.8481 10.1C39.9355 11.0101 39.8433 11.7254 39.5703 12.2534C39.168 13.0318 39.1865 13.0778 40.7605 15.2136C42.6261 17.7451 44.8365 21.898 45.4515 24.0271C46.8903 29.0085 46.3671 34.9317 43.9961 40.5036C43.3343 42.0588 43.1718 42.8264 43.1674 44.419C43.1644 45.5086 43.048 47.1887 42.9087 48.1526C42.7694 49.1165 42.6814 49.9312 42.7133 49.963C42.7451 49.9948 43.488 49.7789 44.3641 49.4831C50.9451 47.2614 57.1642 48.9074 58.3312 53.1797C58.6861 54.479 58.729 57.6542 58.3916 57.6542C58.2602 57.6542 57.3603 57.356 56.3918 56.9914C52.9704 55.7036 50.5643 55.3926 45.4823 55.5811C42.9443 55.6753 40.3796 55.8481 39.783 55.9651C38.8032 56.1573 38.5597 56.0811 37.2649 55.1781C36.4766 54.6282 35.2121 54.0297 34.4551 53.8481C31.688 53.1843 27.5681 54.0449 26.1166 55.59C25.5628 56.1795 25.493 56.1859 23.1747 55.8572C17.6312 55.0712 11.3384 55.5261 7.43608 56.995C6.47274 57.3576 5.63807 57.6542 5.58126 57.6542C5.52444 57.6542 5.48063 56.7085 5.48391 55.5525H5.48391ZM40.7322 48.318C40.7322 46.8899 40.172 46.3383 37.7944 45.425C34.6129 44.203 27.9769 44.5153 24.7926 46.0369C23.6055 46.6041 22.8339 47.6637 22.8339 48.7266C22.8339 49.2823 22.9181 49.3062 24.2557 49.1287C29.3473 48.4533 36.4826 48.4987 39.3763 49.2249C39.8983 49.3559 40.4169 49.4756 40.5288 49.4909C40.6407 49.5061 40.7322 48.9783 40.7322 48.318V48.318ZM34.1519 42.6506C35.3731 42.2074 35.3546 41.8532 34.0881 41.4282C32.9944 41.0613 29.5186 41.1159 29.1293 41.5062C29.0228 41.613 29.278 41.9951 29.6965 42.3553C30.2999 42.8746 30.7489 43.0059 31.866 42.9895C32.6407 42.9782 33.6693 42.8256 34.1519 42.6506L34.1519 42.6506ZM31.783 39.8915C34.8407 39.8915 38.3186 39.9525 39.5118 40.0271C41.6237 40.1591 41.6837 40.1459 41.7709 39.5302C41.9682 38.1373 39.7381 37.0217 35.6755 36.481C31.7986 35.9651 25.857 36.5794 23.6413 37.7252C22.8957 38.1108 22.0203 39.3527 22.0203 40.025C22.0203 40.2318 22.6532 40.2563 24.122 40.1062C25.278 39.9881 28.7254 39.8915 31.783 39.8915V39.8915ZM42.5867 35.2606C42.8371 34.5267 42.9112 33.3132 42.8256 31.3492C42.6875 28.1844 42.0002 25.8607 40.2588 22.6712C37.9629 18.466 36.1053 16.7022 33.9796 16.7092C32.1872 16.7152 31.9204 16.9493 32.4071 18.0894C32.6233 18.5958 33.8339 20.5561 35.0974 22.4456C37.168 25.542 37.4811 26.1843 38.2703 28.9541C38.7519 30.6442 39.3449 32.6093 39.5879 33.3209C40.082 34.7675 41.441 36.5808 41.9148 36.4257C42.0847 36.3701 42.3871 35.8458 42.5867 35.2606Z" fill="#333333" stroke="black" stroke-width="0.987802"/>
</svg>
